X: 8333
T: Cotillion, The
R: barndance
M: 4/4
K: Gmajor
|:G4d4|B2AB G2AB|c2B2A2G2|FGAF D3D|
E4F4|GFGA G2c2|B2AG A2GF|1 G4G4:|2 G4GBcd||
|:^dedc B3d|dedc B2d2|e2d2e2f2|g2fed4|
g2fe d2cd|e2dc B2AB|c2B2A2G2|FGAF D2D2|
E4F4|GFGA G2c2|B2AG A2GF|G4G4:|

